svg/clockface/clockfacesolid/clock_00_35.svg

<?xml version="1.0" encoding="UTF-8" standalone="no"?>
<svg
   height="1000"
   width="1000"
   version="1.1"
   id="h00m00"
   viewBox="0 0 1000 1000"
   sodipodi:docname="solid_clock_00_35.svg"
   xmlns:inkscape="http://www.inkscape.org/namespaces/inkscape"
   xmlns:sodipodi="http://sodipodi.sourceforge.net/DTD/sodipodi-0.dtd"
   xmlns="http://www.w3.org/2000/svg"
   xmlns:svg="http://www.w3.org/2000/svg">
  <defs
     id="defs10" />
  <sodipodi:namedview
     id="namedview8"
     pagecolor="#505050"
     bordercolor="#ffffff"
     borderopacity="1"
     inkscape:showpageshadow="0"
     inkscape:pageopacity="0"
     inkscape:pagecheckerboard="1"
     inkscape:deskcolor="#505050" />
  <path
     id="path14"
     style="color:#000000;fill:#000000;stroke-width:60;-inkscape-stroke:none"
     d="M 500 130 C 296.01059 130 130 296.01059 130 500 C 130 703.98941 296.01059 870 500 870 C 703.98941 870 870 703.98941 870 500 C 870 296.01059 703.98941 130 500 130 z M 500 290 A 30 30 0 0 1 530 320 L 530 500 A 30.003 30.003 0 0 1 525.98047 515 L 390.98047 748.82617 A 30 30 0 0 1 350 759.80859 A 30 30 0 0 1 335.25586 729.91211 A 30 30 0 0 1 339.01953 718.82617 L 470 491.96094 L 470 320 A 30 30 0 0 1 500 290 z " />
</svg>

<svg xmlns="http://www.w3.org/2000/svg" width="1000" height="1000"><path d="M500 130c-203.99 0-370 166.01-370 370s166.01 370 370 370 370-166.01 370-370-166.01-370-370-370zm0 160a30 30 0 0 1 30 30v180a30.003 30.003 0 0 1-4.02 15l-135 233.826A30 30 0 0 1 350 759.81a30 30 0 0 1-14.744-29.897 30 30 0 0 1 3.764-11.086L470 491.961V320a30 30 0 0 1 30-30z" style="-inkscape-stroke:none" stroke-width="60"/></svg>
